X:1
T:Blood Red Roses
M:4/4
L:1/4
K:C
 z2 z G| C D E F| G A _B- G| c c2 _B| G A _B G| c c3-| c2 z G| C D E F|\
 G A _B- G| c c2 _B| G A _B G| c c3| g3 f| e c f d| c c2 _B| G A _B G|\
 c c3-| c3 z|
